server/api/resources/providerLogos/azure-32-white.svg

<?xml version="1.0" encoding="UTF-8"?>
<svg width="80px" height="32px" viewBox="0 0 80 32" version="1.1" xmlns="http://www.w3.org/2000/svg" xmlns:xlink="http://www.w3.org/1999/xlink">
    <g id="Symbols" stroke="none" stroke-width="1" fill="none" fill-rule="evenodd">
        <g id="Provider/Azure/azure-32" fill="white">
            <path d="M12.3991803,15.9059712 L15.8268933,6.48256313 L27.0833333,26 L6.18697956,26 L18.9837746,23.7383482 L12.3991803,15.9059712 Z M6.89012621,11.7485454 L14.9295942,5 L6.21135441,23.7045631 L6.21135441,23.688475 L0,23.688475 L6.89012621,11.7485454 Z M79.9341732,17.9025904 L73.5150056,17.9025904 C73.4555689,18.7223421 73.7527526,19.5420939 74.3471199,20.1861846 C74.9414873,20.7131678 75.7141649,21.06449 76.4868425,21.0059363 C77.497267,21.0059363 78.5076915,20.6546141 79.2803691,20.0105235 L79.2803691,21.3572585 C78.3293813,21.9427955 77.25952,22.2941176 76.130222,22.235564 C75.000924,22.2941176 73.871626,21.8256881 73.0989485,21.0059363 C72.3262709,20.0105235 71.9102137,18.8394495 72.0290872,17.6098219 C72.0290872,16.7900702 72.2073974,15.9117647 72.5640178,15.1505666 C72.9206382,14.4479223 73.3961321,13.8623853 74.109373,13.4525094 C74.7631771,13.0426336 75.4764179,12.8669725 76.2490955,12.8669725 C77.25952,12.8084188 78.2699446,13.2182947 78.9831854,13.9794927 C79.6964263,14.8577982 80.0530467,16.0288721 79.99361,17.1413923 L79.9341732,17.9025904 Z M78.4482548,16.7315165 C78.5076915,16.0288721 78.2699446,15.3847814 77.8538874,14.7992445 C77.4378303,14.3308149 76.8434629,14.0966001 76.1896588,14.0966001 C75.5358547,14.0966001 74.8820506,14.3308149 74.4659934,14.7992445 C73.9904995,15.3262277 73.6338791,15.9703184 73.5744423,16.6729628 L78.4482548,16.7315165 Z M71.1375361,14.506476 C70.7809157,14.2722612 70.4242953,14.2137075 70.0082381,14.2137075 C69.354434,14.2137075 68.7600666,14.5650297 68.462883,15.092013 C68.0468258,15.7946573 67.8090789,16.6144091 67.8685156,17.3756071 L67.8685156,21.9427955 L66.4420339,21.9427955 L66.4420339,13.0426336 L67.8685156,13.0426336 L67.8685156,14.8577982 L67.9279523,14.8577982 C68.1062625,14.3308149 68.4034462,13.8038316 68.8195034,13.3939557 C69.4733075,12.8669725 70.3054218,12.6913114 71.1375361,12.9840799 L71.1375361,14.506476 Z M63.5296338,22.0599029 L62.1031521,22.0599029 L62.1031521,20.6546141 L62.0437154,20.6546141 C61.5087847,21.7085807 60.4389235,22.2941176 59.2501887,22.2941176 C57.1104662,22.2941176 55.9811682,21.0059363 55.9811682,18.4881274 L55.9811682,13.159741 L57.4076499,13.159741 L57.4076499,18.3124663 C57.4076499,20.1861846 58.1208907,21.1230437 59.6068091,21.1230437 C60.2606132,21.1230437 60.9144174,20.8888289 61.3304745,20.3618457 C61.8059684,19.7763087 62.0437154,19.0736643 62.0437154,18.37102 L62.0437154,13.2182947 L63.470197,13.2182947 L63.5296338,22.0599029 Z M54.3169395,13.5110631 L48.9676332,20.8302752 L54.3169395,20.8302752 L54.3169395,22.0013492 L46.8279107,22.0013492 L46.8279107,21.5914733 L52.177217,14.3308149 L47.3034046,14.3308149 L47.3034046,13.159741 L54.3169395,13.159741 L54.3169395,13.5110631 Z M46.29298,22.0599029 L44.6287514,22.0599029 L43.2617065,18.5466811 L37.9124001,18.5466811 L36.6642286,22.0599029 L35,22.0599029 L39.8143757,9.52941176 L41.3597309,9.52941176 L46.29298,22.0599029 Z M42.8456493,17.199946 L40.8248002,11.8715596 C40.7653635,11.5787911 40.64649,11.2860227 40.5870533,10.9932542 L40.5276165,10.9932542 L40.3493063,11.8715596 L38.3284573,17.199946 L42.8456493,17.199946 Z" id="Combined-Shape"></path>
        </g>
    </g>
</svg>

<?xml version="1.0" encoding="UTF-8" standalone="no"?>
<svg xmlns:dc="http://purl.org/dc/elements/1.1/" xmlns:cc="http://creativecommons.org/ns#" xmlns:rdf="http://www.w3.org/1999/02/22-rdf-syntax-ns#" xmlns:svg="http://www.w3.org/2000/svg" xmlns="http://www.w3.org/2000/svg" id="svg2206" version="1.1" viewBox="0 0 80 32" height="32px" width="80px">
  <defs id="defs2210">
    <linearGradient id="e399c19f-b68f-429d-b176-18c2117ff73c" x1="-1032.172" x2="-1059.213" y1="145.312" y2="65.426" gradientTransform="matrix(1,0,0,-1,1075,158)" gradientUnits="userSpaceOnUse">
      <stop offset="0" stop-color="white" id="stop2775" />
      <stop offset="1" stop-color="white" id="stop2777" />
    </linearGradient>
    <linearGradient id="ac2a6fc2-ca48-4327-9a3c-d4dcc3256e15" x1="-1023.725" x2="-1029.98" y1="108.083" y2="105.968" gradientTransform="matrix(1,0,0,-1,1075,158)" gradientUnits="userSpaceOnUse">
      <stop offset="0" stop-opacity=".3" id="stop2780" />
      <stop offset=".071" stop-opacity=".2" id="stop2782" />
      <stop offset=".321" stop-opacity=".1" id="stop2784" />
      <stop offset=".623" stop-opacity=".05" id="stop2786" />
      <stop offset="1" stop-opacity="0" id="stop2788" />
    </linearGradient>
    <linearGradient id="a7fee970-a784-4bb1-af8d-63d18e5f7db9" x1="-1027.165" x2="-997.482" y1="147.642" y2="68.561" gradientTransform="matrix(1,0,0,-1,1075,158)" gradientUnits="userSpaceOnUse">
      <stop offset="0" stop-color="white" id="stop2791" />
      <stop offset="1" stop-color="white" id="stop2793" />
    </linearGradient>
  </defs>
  <g fill-rule="evenodd" fill="none" stroke-width="1" stroke="none" id="Symbols">
    <g fill="white" id="Provider/Azure/azure-32">
      <path id="Combined-Shape" d="m 79.934173,17.90259 h -6.419167 c -0.05944,0.819752 0.237747,1.639504 0.832114,2.283595 0.594367,0.526983 1.367045,0.878305 2.139722,0.819751 1.010425,0 2.02085,-0.351322 2.793527,-0.995412 v 1.346734 c -0.950988,0.585537 -2.020849,0.93686 -3.150147,0.878306 -1.129298,0.05855 -2.258596,-0.409876 -3.031273,-1.229628 -0.772678,-0.995412 -1.188735,-2.166487 -1.069862,-3.396114 0,-0.819752 0.17831,-1.698057 0.534931,-2.459255 0.35662,-0.702645 0.832114,-1.288182 1.545355,-1.698058 0.653804,-0.409875 1.367045,-0.585537 2.139722,-0.585537 1.010425,-0.05855 2.02085,0.351323 2.73409,1.112521 0.713241,0.878305 1.069862,2.049379 1.010425,3.161899 z m -1.485918,-1.171073 c 0.05944,-0.702645 -0.17831,-1.346736 -0.594368,-1.932272 -0.416057,-0.46843 -1.010424,-0.702645 -1.664228,-0.702645 -0.653804,0 -1.307608,0.234215 -1.723666,0.702645 -0.475494,0.526983 -0.832114,1.171073 -0.891551,1.873718 z m -7.310719,-2.225041 c -0.35662,-0.234215 -0.713241,-0.292768 -1.129298,-0.292768 -0.653804,0 -1.248171,0.351322 -1.545355,0.878305 -0.416057,0.702644 -0.653804,1.522396 -0.594367,2.283594 v 4.567188 h -1.426482 v -8.900161 h 1.426482 v 1.815164 h 0.05944 c 0.17831,-0.526983 0.475494,-1.053966 0.891551,-1.463842 0.653805,-0.526984 1.485919,-0.702645 2.318033,-0.409876 z m -7.607902,7.553427 h -1.426482 v -1.405289 h -0.05944 c -0.53493,1.053967 -1.604791,1.639504 -2.793526,1.639504 -2.139723,0 -3.269021,-1.288182 -3.269021,-3.805991 v -5.328386 h 1.426482 v 5.152725 c 0,1.873719 0.713241,2.810578 2.199159,2.810578 0.653804,0 1.307608,-0.234215 1.723665,-0.761198 0.475494,-0.585537 0.713241,-1.288182 0.713241,-1.990826 v -5.152725 h 1.426482 z m -9.212695,-8.54884 -5.349306,7.319212 h 5.349306 v 1.171074 h -7.489028 v -0.409876 l 5.349306,-7.260658 h -4.873812 v -1.171074 h 7.013534 z m -8.023959,8.54884 H 44.628751 L 43.261707,18.546681 H 37.9124 l -1.248171,3.513222 H 35 L 39.814376,9.5294118 h 1.545355 z M 42.845649,17.199946 40.8248,11.87156 c -0.05944,-0.292769 -0.17831,-0.585537 -0.237747,-0.878306 h -0.05944 l -0.17831,0.878306 -2.020849,5.328386 z" />
    </g>
  </g>
  <g transform="matrix(0.25167685,0,0,0.25167685,-0.85779638,3.4239514)" id="g2828">
    <path style="fill:url(#e399c19f-b68f-429d-b176-18c2117ff73c)" fill="url(#e399c19f-b68f-429d-b176-18c2117ff73c)" d="m 33.338,6.544 h 26.038 l -27.03,80.087 a 4.152,4.152 0 0 1 -3.933,2.824 H 8.149 A 4.145,4.145 0 0 1 4.221,83.985 L 29.404,9.368 a 4.152,4.152 0 0 1 3.934,-2.825 z" id="path2798" />
    <path fill="#ffffff" d="M 71.175,60.261 H 29.885 A 1.911,1.911 0 0 0 28.58,63.57 l 26.532,24.764 a 4.171,4.171 0 0 0 2.846,1.121 h 23.38 z" id="path2800" />
    <path style="fill:url(#ac2a6fc2-ca48-4327-9a3c-d4dcc3256e15)" fill="url(#ac2a6fc2-ca48-4327-9a3c-d4dcc3256e15)" d="M 33.338,6.544 A 4.118,4.118 0 0 0 29.395,9.423 L 4.252,83.917 a 4.14,4.14 0 0 0 3.908,5.538 h 20.787 a 4.443,4.443 0 0 0 3.41,-2.9 l 5.014,-14.777 17.91,16.705 a 4.237,4.237 0 0 0 2.666,0.972 H 81.24 L 71.024,60.261 41.243,60.268 59.47,6.544 Z" id="path2802" />
    <path style="fill:url(#a7fee970-a784-4bb1-af8d-63d18e5f7db9)" fill="url(#a7fee970-a784-4bb1-af8d-63d18e5f7db9)" d="M 66.595,9.364 A 4.145,4.145 0 0 0 62.667,6.544 H 33.648 a 4.146,4.146 0 0 1 3.928,2.82 l 25.184,74.62 a 4.146,4.146 0 0 1 -3.928,5.472 h 29.02 a 4.146,4.146 0 0 0 3.927,-5.472 z" id="path2804" />
  </g>
</svg>
